mono-outline/maestro.svg

<svg xmlns="http://www.w3.org/2000/svg" fill="none" viewBox="0 0 780 500"><path stroke="#393939" stroke-width="30" d="M53.41 15h672.18C746.804 15 764 31.834 764 52.6v394.8c0 20.766-17.196 37.6-38.41 37.6H53.41C32.197 485 15 468.166 15 447.399V52.6C15 31.834 32.197 15 53.41 15Z"/><path fill="#393939" d="M292.51 439.881v-25.428c.148-2.133-.16-4.273-.904-6.277-.744-2.005-1.906-3.828-3.41-5.348-1.504-1.519-3.314-2.701-5.311-3.467-1.996-.765-4.133-1.095-6.267-.97-2.801-.183-5.6.388-8.105 1.656-2.505 1.267-4.624 3.183-6.135 5.549-1.378-2.295-3.349-4.175-5.706-5.443-2.357-1.268-5.012-1.877-7.686-1.762-2.331-.118-4.652.376-6.733 1.431-2.082 1.056-3.851 2.637-5.133 4.587v-5.001h-8.815v40.473h8.899v-22.419c-.197-1.387-.083-2.8.333-4.138.416-1.337 1.124-2.565 2.073-3.596.949-1.03 2.116-1.836 3.415-2.36 1.299-.525 2.698-.753 4.096-.67 5.849 0 8.815 3.814 8.815 10.679v22.504h8.9v-22.419c-.181-1.384-.057-2.791.365-4.122.422-1.33 1.131-2.552 2.077-3.579.945-1.027 2.105-1.833 3.397-2.362 1.292-.53 2.684-.769 4.078-.701 6.018 0 8.9 3.814 8.9 10.679v22.504h8.857Zm49.585-20.215v-20.215h-8.9v4.916c-1.495-1.929-3.428-3.473-5.639-4.505-2.211-1.032-4.637-1.522-7.075-1.428-5.62 0-11.01 2.232-14.984 6.206s-6.206 9.364-6.206 14.984c0 5.62 2.232 11.009 6.206 14.983s9.364 6.207 14.984 6.207c2.438.093 4.864-.397 7.075-1.429 2.211-1.031 4.144-2.576 5.639-4.505v4.916h8.815l.085-20.13Zm-32.76 0c.141-2.385.975-4.677 2.402-6.593 1.426-1.916 3.382-3.374 5.627-4.192 2.244-.819 4.679-.964 7.004-.416 2.325.547 4.44 1.763 6.083 3.497 1.644 1.733 2.744 3.91 3.166 6.262.422 2.351.147 4.775-.791 6.972-.938 2.197-2.499 4.072-4.489 5.393-1.99 1.322-4.323 2.033-6.712 2.045-1.687.04-3.363-.273-4.922-.919-1.559-.646-2.966-1.61-4.131-2.831-1.165-1.22-2.062-2.671-2.634-4.258-.572-1.588-.806-3.277-.688-4.96h.085Zm221.096-21.19c2.902-.008 5.779.539 8.476 1.61 2.574 1.031 4.921 2.558 6.908 4.493 1.96 1.917 3.517 4.208 4.577 6.738 2.214 5.434 2.214 11.518 0 16.952-1.059 2.53-2.616 4.822-4.577 6.738-1.987 1.935-4.334 3.462-6.908 4.493-5.589 2.171-11.788 2.171-17.376 0-2.562-1.03-4.896-2.557-6.866-4.493-1.942-1.924-3.483-4.214-4.534-6.738-2.21-5.435-2.21-11.517 0-16.952 1.051-2.524 2.592-4.814 4.534-6.738 1.97-1.936 4.304-3.463 6.866-4.493 2.794-1.158 5.79-1.748 8.815-1.737l.085.127Zm0 8.476c-1.726-.024-3.44.293-5.043.932-1.511.606-2.881 1.515-4.027 2.67-1.168 1.217-2.077 2.659-2.67 4.238-1.294 3.384-1.294 7.127 0 10.51.592 1.58 1.501 3.023 2.67 4.238 1.145 1.157 2.516 2.066 4.027 2.67 3.228 1.265 6.815 1.265 10.044 0 1.583-.585 3.026-1.494 4.238-2.67 1.171-1.214 2.08-2.657 2.67-4.238 1.294-3.383 1.294-7.126 0-10.51-.59-1.581-1.499-3.023-2.67-4.238-1.212-1.175-2.655-2.085-4.238-2.67-1.599-.732-3.329-1.135-5.086-1.186l.085.254Zm-140.447 12.714c0-12.714-7.883-21.19-19.198-21.19-5.62.079-10.979 2.387-14.897 6.416-3.918 4.03-6.075 9.451-5.996 15.071.078 5.619 2.386 10.978 6.416 14.896 4.029 3.919 9.45 6.075 15.07 5.997 6.034.206 11.932-1.815 16.571-5.679l-4.238-6.527c-3.347 2.684-7.493 4.176-11.782 4.238-2.914.251-5.81-.645-8.074-2.497-2.263-1.852-3.715-4.514-4.047-7.42h30.048c.127-1.059.127-2.118.127-3.305Zm-30.132-3.56c.164-2.69 1.363-5.213 3.346-7.038 1.983-1.825 4.596-2.812 7.291-2.752 1.319-.028 2.631.204 3.86.683 1.23.479 2.353 1.195 3.305 2.109.952.913 1.716 2.004 2.246 3.212.53 1.208.818 2.509.845 3.828l-20.893-.042Zm67.214-6.357c-3.87-2.229-8.248-3.425-12.714-3.475-4.831 0-7.713 1.78-7.713 4.746 0 2.967 3.051 3.476 6.866 3.984l4.238.593c8.815 1.272 14.155 5.001 14.155 12.121s-6.781 13.223-18.436 13.223c-6.246.166-12.381-1.676-17.503-5.256l4.238-6.865c3.89 2.885 8.637 4.378 13.477 4.238 6.018 0 9.239-1.78 9.239-4.916 0-2.289-2.288-3.56-7.12-4.238l-4.238-.593c-9.069-1.272-13.985-5.34-13.985-11.952 0-8.052 6.611-12.968 16.952-12.968 5.787-.194 11.509 1.277 16.486 4.238l-3.942 7.12Zm42.38-2.289h-14.367v18.266c0 4.238 1.441 6.781 5.849 6.781 2.751-.091 5.434-.878 7.798-2.288l2.542 7.543c-3.304 2.062-7.123 3.149-11.018 3.136-10.426 0-14.07-5.594-14.07-15.002V407.46h-8.222v-8.052h8.222v-12.29h8.899v12.29h14.367v8.052Zm30.471-9.069c2.138.008 4.26.381 6.273 1.102l-2.713 8.476c-1.751-.698-3.624-1.044-5.509-1.017-5.764 0-8.476 3.729-8.476 10.425v22.674h-8.815v-40.473h8.73v4.916c1.082-1.858 2.645-3.39 4.524-4.435 1.88-1.044 4.007-1.561 6.156-1.498l-.17-.17Zm60.943 35.599c.551-.006 1.098.094 1.61.297.487.199.932.486 1.314.847.372.366.674.797.89 1.272.214.495.325 1.029.325 1.568 0 .539-.111 1.073-.325 1.568-.216.475-.518.906-.89 1.272-.382.361-.827.648-1.314.847-.507.224-1.056.339-1.61.339-.804-.006-1.589-.24-2.264-.675-.676-.436-1.213-1.054-1.551-1.783-.212-.496-.321-1.029-.321-1.568 0-.539.109-1.072.321-1.568.216-.475.518-.906.89-1.272.382-.361.827-.648 1.314-.847.446-.177.919-.278 1.399-.297h.212Zm0 7.163c.423.002.841-.085 1.228-.255.365-.163.696-.393.975-.678.36-.362.625-.806.774-1.294.149-.488.177-1.005.081-1.506-.096-.501-.313-.971-.632-1.369s-.73-.713-1.198-.917c-.387-.169-.806-.255-1.228-.254-.423.002-.841.089-1.23.254-.38.157-.726.387-1.017.679-.53.578-.824 1.334-.824 2.119 0 .784.294 1.54.824 2.119.294.297.644.532 1.029.692.386.161.8.242 1.218.24v.17Zm.254-5.044c.395-.019.785.101 1.102.339.129.108.232.244.298.399.066.155.095.323.083.491.006.141-.017.282-.068.413-.051.131-.129.25-.229.35-.245.223-.559.358-.89.382l1.229 1.398h-.974l-1.145-1.398h-.381v1.398h-.805v-3.899l1.78.127Zm-.933.721v1.017h.933c.166.049.342.049.508 0 .03-.059.046-.125.046-.191s-.016-.131-.046-.191c.03-.059.046-.124.046-.19 0-.067-.016-.132-.046-.191-.166-.049-.342-.049-.508 0l-.933-.254ZM143.07 210.458c0 84.332 68.458 152.679 152.679 152.679 29.985 0 59.418-9.039 84.332-25.465-80.363-65.37-79.812-188.726 0-254.0969-24.914-16.5356-54.347-25.4649-84.332-25.4649C211.528 58 143.07 126.457 143.07 210.458Zm246.932 119.939c77.718-60.631 77.387-178.805 0-239.7667-77.387 60.9617-77.717 179.2457 0 239.7667Zm246.932-119.939C636.934 126.457 568.477 58 484.255 58c-29.984 0-59.418 9.0395-84.331 25.4648 79.481 65.3712 80.693 189.0572 0 254.0972 24.913 16.536 54.567 25.465 84.331 25.465 84.222.11 152.679-68.237 152.679-152.569Z"/></svg>

<svg width="780" height="500" viewBox="0 0 780 500" fill="none" xmlns="http://www.w3.org/2000/svg">
<path d="M53.41 15H725.59C746.804 15 764 31.834 764 52.6V447.4C764 468.166 746.804 485 725.59 485H53.41C32.197 485 15 468.166 15 447.399V52.6C15 31.834 32.197 15 53.41 15Z" stroke="#393939" stroke-width="30"/>
<path d="M292.51 439.881V414.453C292.658 412.32 292.35 410.18 291.606 408.176C290.862 406.171 289.7 404.348 288.196 402.828C286.692 401.309 284.882 400.127 282.885 399.361C280.889 398.596 278.752 398.266 276.618 398.391C273.817 398.208 271.018 398.779 268.513 400.047C266.008 401.314 263.889 403.23 262.378 405.596C261 403.301 259.029 401.421 256.672 400.153C254.315 398.885 251.66 398.276 248.986 398.391C246.655 398.273 244.334 398.767 242.253 399.822C240.171 400.878 238.402 402.459 237.12 404.409V399.408H228.305V439.881H237.204V417.462C237.007 416.075 237.121 414.662 237.537 413.324C237.953 411.987 238.661 410.759 239.61 409.728C240.559 408.698 241.726 407.892 243.025 407.368C244.324 406.843 245.723 406.615 247.121 406.698C252.97 406.698 255.936 410.512 255.936 417.377V439.881H264.836V417.462C264.655 416.078 264.779 414.671 265.201 413.34C265.623 412.01 266.332 410.788 267.278 409.761C268.223 408.734 269.383 407.928 270.675 407.399C271.967 406.869 273.359 406.63 274.753 406.698C280.771 406.698 283.653 410.512 283.653 417.377V439.881H292.51ZM342.095 419.666V399.451H333.195V404.367C331.7 402.438 329.767 400.894 327.556 399.862C325.345 398.83 322.919 398.34 320.481 398.434C314.861 398.434 309.471 400.666 305.497 404.64C301.523 408.614 299.291 414.004 299.291 419.624C299.291 425.244 301.523 430.633 305.497 434.607C309.471 438.581 314.861 440.814 320.481 440.814C322.919 440.907 325.345 440.417 327.556 439.385C329.767 438.354 331.7 436.809 333.195 434.88V439.796H342.01L342.095 419.666ZM309.335 419.666C309.476 417.281 310.31 414.989 311.737 413.073C313.163 411.157 315.119 409.699 317.364 408.881C319.608 408.062 322.043 407.917 324.368 408.465C326.693 409.012 328.808 410.228 330.451 411.962C332.095 413.695 333.195 415.872 333.617 418.224C334.039 420.575 333.764 422.999 332.826 425.196C331.888 427.393 330.327 429.268 328.337 430.589C326.347 431.911 324.014 432.622 321.625 432.634C319.938 432.674 318.262 432.361 316.703 431.715C315.144 431.069 313.737 430.105 312.572 428.884C311.407 427.664 310.51 426.213 309.938 424.626C309.366 423.038 309.132 421.349 309.25 419.666H309.335ZM530.431 398.476C533.333 398.468 536.21 399.015 538.907 400.086C541.481 401.117 543.828 402.644 545.815 404.579C547.775 406.496 549.332 408.787 550.392 411.317C552.606 416.751 552.606 422.835 550.392 428.269C549.333 430.799 547.776 433.091 545.815 435.007C543.828 436.942 541.481 438.469 538.907 439.5C533.318 441.671 527.119 441.671 521.531 439.5C518.969 438.47 516.635 436.943 514.665 435.007C512.723 433.083 511.182 430.793 510.131 428.269C507.921 422.834 507.921 416.752 510.131 411.317C511.182 408.793 512.723 406.503 514.665 404.579C516.635 402.643 518.969 401.116 521.531 400.086C524.325 398.928 527.321 398.338 530.346 398.349L530.431 398.476ZM530.431 406.952C528.705 406.928 526.991 407.245 525.388 407.884C523.877 408.49 522.507 409.399 521.361 410.554C520.193 411.771 519.284 413.213 518.691 414.792C517.397 418.176 517.397 421.919 518.691 425.302C519.283 426.882 520.192 428.325 521.361 429.54C522.506 430.697 523.877 431.606 525.388 432.21C528.616 433.475 532.203 433.475 535.432 432.21C537.015 431.625 538.458 430.716 539.67 429.54C540.841 428.326 541.75 426.883 542.34 425.302C543.634 421.919 543.634 418.176 542.34 414.792C541.75 413.211 540.841 411.769 539.67 410.554C538.458 409.379 537.015 408.469 535.432 407.884C533.833 407.152 532.103 406.749 530.346 406.698L530.431 406.952ZM389.984 419.666C389.984 406.952 382.101 398.476 370.786 398.476C365.166 398.555 359.807 400.863 355.889 404.892C351.971 408.922 349.814 414.343 349.893 419.963C349.971 425.582 352.279 430.941 356.309 434.859C360.338 438.778 365.759 440.934 371.379 440.856C377.413 441.062 383.311 439.041 387.95 435.177L383.712 428.65C380.365 431.334 376.219 432.826 371.93 432.888C369.016 433.139 366.12 432.243 363.856 430.391C361.593 428.539 360.141 425.877 359.809 422.971H389.857C389.984 421.912 389.984 420.853 389.984 419.666ZM359.852 416.106C360.016 413.416 361.215 410.893 363.198 409.068C365.181 407.243 367.794 406.256 370.489 406.316C371.808 406.288 373.12 406.52 374.349 406.999C375.579 407.478 376.702 408.194 377.654 409.108C378.606 410.021 379.37 411.112 379.9 412.32C380.43 413.528 380.718 414.829 380.745 416.148L359.852 416.106ZM427.066 409.749C423.196 407.52 418.818 406.324 414.352 406.274C409.521 406.274 406.639 408.054 406.639 411.02C406.639 413.987 409.69 414.496 413.505 415.004L417.743 415.597C426.558 416.869 431.898 420.598 431.898 427.718C431.898 434.838 425.117 440.941 413.462 440.941C407.216 441.107 401.081 439.265 395.959 435.685L400.197 428.82C404.087 431.705 408.834 433.198 413.674 433.058C419.692 433.058 422.913 431.278 422.913 428.142C422.913 425.853 420.625 424.582 415.793 423.904L411.555 423.311C402.486 422.039 397.57 417.971 397.57 411.359C397.57 403.307 404.181 398.391 414.522 398.391C420.309 398.197 426.031 399.668 431.008 402.629L427.066 409.749ZM469.446 407.46H455.079V425.726C455.079 429.964 456.52 432.507 460.928 432.507C463.679 432.416 466.362 431.629 468.726 430.219L471.268 437.762C467.964 439.824 464.145 440.911 460.25 440.898C449.824 440.898 446.18 435.304 446.18 425.896V407.46H437.958V399.408H446.18V387.118H455.079V399.408H469.446V407.46ZM499.917 398.391C502.055 398.399 504.177 398.772 506.19 399.493L503.477 407.969C501.726 407.271 499.853 406.925 497.968 406.952C492.204 406.952 489.492 410.681 489.492 417.377V440.051H480.677V399.578H489.407V404.494C490.489 402.636 492.052 401.104 493.931 400.059C495.811 399.015 497.938 398.498 500.087 398.561L499.917 398.391ZM560.86 433.99C561.411 433.984 561.958 434.084 562.47 434.287C562.957 434.486 563.402 434.773 563.784 435.134C564.156 435.5 564.458 435.931 564.674 436.406C564.888 436.901 564.999 437.435 564.999 437.974C564.999 438.513 564.888 439.047 564.674 439.542C564.458 440.017 564.156 440.448 563.784 440.814C563.402 441.175 562.957 441.462 562.47 441.661C561.963 441.885 561.414 442 560.86 442C560.056 441.994 559.271 441.76 558.596 441.325C557.92 440.889 557.383 440.271 557.045 439.542C556.833 439.046 556.724 438.513 556.724 437.974C556.724 437.435 556.833 436.902 557.045 436.406C557.261 435.931 557.563 435.5 557.935 435.134C558.317 434.773 558.762 434.486 559.249 434.287C559.695 434.11 560.168 434.009 560.648 433.99H560.86ZM560.86 441.153C561.283 441.155 561.701 441.068 562.088 440.898C562.453 440.735 562.784 440.505 563.063 440.22C563.423 439.858 563.688 439.414 563.837 438.926C563.986 438.438 564.014 437.921 563.918 437.42C563.822 436.919 563.605 436.449 563.286 436.051C562.967 435.653 562.556 435.338 562.088 435.134C561.701 434.965 561.282 434.879 560.86 434.88C560.437 434.882 560.019 434.969 559.63 435.134C559.25 435.291 558.904 435.521 558.613 435.813C558.083 436.391 557.789 437.147 557.789 437.932C557.789 438.716 558.083 439.472 558.613 440.051C558.907 440.348 559.257 440.583 559.642 440.743C560.028 440.904 560.442 440.985 560.86 440.983V441.153ZM561.114 436.109C561.509 436.09 561.899 436.21 562.216 436.448C562.345 436.556 562.448 436.692 562.514 436.847C562.58 437.002 562.609 437.17 562.597 437.338C562.603 437.479 562.58 437.62 562.529 437.751C562.478 437.882 562.4 438.001 562.3 438.101C562.055 438.324 561.741 438.459 561.41 438.483L562.639 439.881H561.665L560.52 438.483H560.139V439.881H559.334V435.982L561.114 436.109ZM560.181 436.83V437.847H561.114C561.28 437.896 561.456 437.896 561.622 437.847C561.652 437.788 561.668 437.722 561.668 437.656C561.668 437.59 561.652 437.525 561.622 437.465C561.652 437.406 561.668 437.341 561.668 437.275C561.668 437.208 561.652 437.143 561.622 437.084C561.456 437.035 561.28 437.035 561.114 437.084L560.181 436.83Z" fill="#393939"/>
<path d="M143.07 210.458C143.07 294.79 211.528 363.137 295.749 363.137C325.734 363.137 355.167 354.098 380.081 337.672C299.718 272.302 300.269 148.946 380.081 83.5751C355.167 67.0395 325.734 58.1102 295.749 58.1102C211.528 58 143.07 126.457 143.07 210.458ZM390.002 330.397C467.72 269.766 467.389 151.592 390.002 90.6303C312.615 151.592 312.285 269.876 390.002 330.397ZM636.934 210.458C636.934 126.457 568.477 58 484.255 58C454.271 58 424.837 67.0395 399.924 83.4648C479.405 148.836 480.617 272.522 399.924 337.562C424.837 354.098 454.491 363.027 484.255 363.027C568.477 363.137 636.934 294.79 636.934 210.458Z" fill="#393939"/>
</svg>
